X:1
T:O Wonderful Savior
T:O Wonderful Savior
T:E. F. Miller
T:E. F. Miller, 1888
T:Public Domain Courtesy of the Cyber Hymnal™
T:Public Domain Courtesy of the Cyber Hymnal™
C:E. F. Miller
Z:Public Domain
Z:Courtesy of the Cyber Hymnal™
%%score 1 ( 2 3 )
L:1/8
Q:1/4=90
M:6/8
K:Eb
V:1 treble 
V:2 bass 
V:3 bass 
V:1
 [EG]/[FA]/ | [GB]>[FA][EG] [Ge]>[Gd][Ac] | [Ac]3 [GB]2 ([GB]/[GB]/) | %3
w: 1.~I have|heard a most won- der- ful|sto- ry Of *|
w: 2.~With the|poor and the low- ly He|min- gled— Yes, *|
w: 3.~A poor|wo- man was brought to Him|help- less, To~be *|
w: 4.~See Him|weep at a grave in the|hour When tears *|
w: 5.~Yes, He|came to give life to the|dy- ing, To *|
 [GB]>[GB][GB] [Ac]>[GB][FA] | [DF]3- [DF]2 [DF]/[EG]/ | [FA]>[EG][FA] [Ad]>[Ac][AB] | %6
w: Je- sus, the Sav- ior and|king; * How He|came from the bright realms of|
w: e- ven the vil- est of|men, * Show- ing|mer- cy and love as they|
w: stoned for her sins in the|past; * He re-|plied to them, “He that is|
w: of an- guish are shed; See|Him * burst- ing|the tomb by His pow- er,|
w: heal all the brok- en in|heart; * And He|prom- ised a home where’s no|
 [GB]3 [Ge]2 ([Ec]/[Ec]<)[EB][Ec]/[EB][EG]>[B,E][B,F] | [B,E]3- [B,E]2 ||"^Refrain" [GB] | %9
w: glo- ry Glad * news of sal- va- tion to|bring. *||
w: lin- gered, To * hear His blest words un- to|them. *||
w: sin- less, By * him let the first stone be|cast.” *|O|
w: Say- ing, “La- * za- rus, come forth from the|dead!” *||
w: sigh- ing, And * loved ones shall ne’er a- gain|part. *||
 [EG]>[CF][CE] [Ec]>[DB][CA] | [Ee]3 [Ec]2 [Ee] | [EB]>[Ec][EB] [EG]>[B,F][B,E] | %12
w: |||
w: |||
w: won- der- ful, won- der- ful|Sav- ior, Thy|prais- es with joy we will|
w: |||
w: |||
 [DB]3- [DB]2 [DF] | [EG]>[B,F][B,E] [EA]>[GB][Ec] | [EB]3 [EG]2 [Ge] | %15
w: |||
w: |||
w: sing: * For|com- ing on earth to re-|deem us We|
w: |||
w: |||
 [Bd]>[Ac][AB] [AB]>[Ac][Ad] | [Ge]3- [Ge]2 |] %17
w: ||
w: ||
w: crown Thee for- ev- er our|king! *|
w: ||
w: ||
V:2
 [E,B,]/[E,B,]/ | [E,B,]>[E,B,][E,B,] [E,B,]>[E,E][E,E] | [E,E]3 [E,E]2 ([E,B,]/[E,B,]/) | %3
 [E,E]>[E,E][E,E] [E,E]>[E,B,][E,B,] | [B,,B,]3- [B,,B,]2 [B,,B,]/[B,,B,]/ | %5
 [B,,B,]>[B,,B,][B,,B,] [B,,B,]>[B,,C][B,,D] | %6
 [E,E]3 [E,B,]2 ([A,,A,]/[A,,A,]<)[B,,G,][B,,A,]/[B,,G,][B,,B,]>[B,,G,][B,,A,] | %7
 [E,G,]3- [E,G,]2 || !fermata![E,B,] | [E,B,]>[E,A,][E,G,] [A,,A,]>[A,,A,][A,,A,] | %10
 [A,,C]3 [A,,A,]2 [C,A,] | [E,G,]>[E,A,][E,G,] [E,B,]>[E,A,][E,G,] | [B,,B,]3- [B,,B,]2 [B,,B,] | %13
 [E,B,]>[E,A,][E,G,] [E,C]>[E,B,][E,A,] | [E,G,]3 [E,B,]2 [E,B,] | %15
 B,>[B,C][B,D] [C,D]>[B,,C][B,,B,] | [E,B,]3- [E,B,]2 |] %17
V:3
 x | x6 | x6 | x6 | x6 | x6 | x12 | x5 || x | x6 | x6 | x6 | x6 | x6 | x6 | B,3/2 x9/2 | x5 |] %17

